X: 3637
T: Bill Of Rights
R: polka
M: 2/4
K: Dmajor
|:A/G/|FA/F/ DF/A/|de f2|ec AB/c/|d/c/d/B/ A/B/A/G/|
FA/F/ DF/A/|de f>A|e/f/e/c/ AB/c/|df d:|
|:A|f/e/d f/e/d|cd e2|ge c/B/A|d/c/d/A/ f/e/d/A/|
f/e/d f/e/d/A/|cd e>A|g/f/e/A/ c/B/A/c/|df d:|

